X:1
T:Ruhe, meine Seele!
T:Ruhe, meine Seele!
T:(Karl Henckell)
T:Richard Strauss, Op.27 No.1
C:Richard Strauss, Op.27 No.1
%%score 1 { ( 2 5 8 ) | ( 3 4 6 7 ) }
L:1/8
Q:1/4=48
M:4/4
K:C
V:1 treble nm="Gesang"
V:2 treble nm="Piano"
V:5 treble 
V:8 treble 
V:3 bass 
V:4 bass 
V:6 bass 
V:7 bass 
V:1
"^Langsam" z8[Q:1/4=47] |[Q:1/4=48] z8[Q:1/4=46] |[Q:1/4=48] z8 | z2!pp! ^C ^G ^D2 ^E2 | %4
w: |||Nicht ein LӮft- chen|
 ^E ^F ^G4 ^G2 | ^G3 G[Q:1/4=47] G G[Q:1/4=46] ^A B |[Q:1/4=48] ^C8[Q:1/4=47][Q:1/4=46] | %7
w: regt sich lei- se,|sanft ent- schlummeret * ruht der|Hain;|
[Q:1/4=48] z2 ^F ^G ^A A[Q:1/4=47] B ^B |[Q:1/4=48] ^c2 ^F2 z2 c2- | ^c3 c ^d2 e2 | %10
w: durch der BlӮt- ter dunk le|HӮl- le stiehlt|_ sich lich- ter|
 ^f6[Q:1/4=46] ^d2[Q:1/4=47] |[Q:1/4=48] B8[Q:1/4=47] |[Q:1/4=46] z8 |!p![Q:1/4=48] G4 C2 z2 | %14
w: Son- nen-|schein,||Ru- he,|
 c4 G2[Q:1/4=46] G A |[Q:1/4=48] _B4 B2 z2 | z4 _B3[Q:1/4=46] B |[Q:1/4=48] A6 A2 | A4 A2 z2 | %19
w: ru- he, mei- ne|See- le.|dei- ne|StӮr- me|gin- gen|
!mf![Q:1/4=52] c8-[Q:1/4=40][Q:1/4=52] | c2 z2!pp![Q:1/4=52] c3 c[Q:1/4=40] | %21
w: wild,|_ hast ge-|
 c4 c c[Q:1/4=56] c3/2 c/ |[Q:1/4=58] !tenuto!..B2 !tenuto!..B2 z2"^cresc." ^F3/2[Q:1/4=30] F/ | %23
w: tobt _ und hast ge-|zit- tert, wie die|
[Q:1/4=58] =F4 _B2[Q:1/4=58] B3/2[Q:1/4=30] c/[Q:1/4=40] | %24
w: Brandung, * wenn sie|
!mf![Q:1/4=58]!<(! _d8!<)![Q:1/4=40][Q:1/4=58][Q:1/4=40][Q:1/4=58] | %25
w: schwillt!|
[Q:1/4=58] z4[Q:1/4=58] z2[Q:1/4=56]!f! =d d[Q:1/4=40][Q:1/4=58][Q:1/4=40][Q:1/4=40] | %26
w: Diese *|
[Q:1/4=58] f4 f2[Q:1/4=56] _A c |[Q:1/4=58] _e4 e2[Q:1/4=56] _A _B | %28
w: Wei- ten sind ge-|wal- tig, bringen *|
 c3 c _e3[Q:1/4=40] e[Q:1/4=40][Q:1/4=58][Q:1/4=40][Q:1/4=58] | %29
w: Herz und Hirn in|
[Q:1/4=40]!<(! ^f6!<)!!f![Q:1/4=20] z2 |!p![Q:1/4=48] G4 C2 z2 |!p! c4 G2[Q:1/4=46] G A | %32
w: Not|Ru- he,|ru- he, meine *|
[Q:1/4=48] _B4 B2 z2 | z4 A2 A2 | A6 z2 | z2 F4 _A2 |!pp! _E6 z2 | %37
w: See- le,|und ver-|giss,|und ver-|giss,|
!p!!<(! G2[Q:1/4=47] G4[Q:1/4=46] G2!<)! |!mp![Q:1/4=48] C8 | z8 | z8 | z8[Q:1/4=47][Q:1/4=46] | %42
w: was dich be-|droht!||||
 !fermata!z8[Q:1/4=44] |] %43
w: |
V:2
!mf!!>(! ([G,_B,CG]4!p! [^F,A,^C^F]4)!>)! |!mf!!<(! ([G,_B,=CG]4!f! [^F,A,^C^F]4)!<)! | %2
 !>![=C=F=c]8 |!pp! [^E,^G,^C]8 | [^E,^G,^C]8- | [E,G,C]8 | z2"^r.H." ^c2"_l.H." ^F2"^r.H." e2 | %7
 x8 | z2"^r." e2"_l." ^c2"^r." ^a2 | x8 |!pp! z2"^r." b2"_l." ^d2 z2 | %11
 z2"^r."!8va(! ^f'2!8va)!"_l." a2"^r."!8va(! b'2!8va)! | %12
!>(! z2"_l." ^f'2"^r."!8va(! ^d''4!>)!!8va)! |!p! [G,_B,CG]8 | [G,_B,CG]8 | [G,_B,FG]8 | %16
 [G,_B,FG]8 | [G,A,EG]8 | [G,A,EG]8 |!sfz! [=C_E^FA=c]8"_l.""^r." |[K:bass]!pp! [C,_E,^F,A,C]8 | %21
[K:treble]!p! [C_E=Fc]8 | [B,D^FB]8 |!mf! !>![=F_B_d=f]8- | [FBdf]8 | [FG=B=dg]8 |!f! [_Acf_a]8 | %27
 [_Ac_e_g_a]8- | [Acega]8 |!ff!!>(! [=Ac_e^fa]8!>)! |!p! [G,_B,CG]8 | [G,_B,CG]8 | [G,_B,FG]8 | %33
 [G,A,EG]8 | [F,A,DF]8 | [F,_A,CF]8 |!pp! [G,C_E]8 | [G,B,D]8 |!mp! [G,_B,CG]8 | [^F,A,^C^F]8 | %40
!>(! [=C=F=c]8!>)! |!pp! z2"^r.H." e2"_l." G2"^r." c'2 | z2"_l." e2"^r." !fermata!g'4 |] %43
V:3
!ped! ([_B,,C,]4!ped-up!!ped! [A,,^C,]4)!ped-up! | %1
!ped! ([_B,,=C,]4!ped-up!!ped! [A,,^C,]4)!ped-up! |!f!!ped! !>![D,,_A,,=C,=F,_A,]8!ped-up! | %3
!ped! [^C,,B,,]8!ped-up! |!ped! [^C,,B,,]8- | [C,,B,,]8!ped-up! |!ped! [^F,,=E,]8!ped-up! | %7
!ped! [^F,,E,]8!ped-up! |!ped! [^F,,=E,]8- | [F,,E,]8!ped-up! |!ped! [B,,=A,]8- | [B,,A,]8- | %12
 [B,,A,]8!ped-up! |!ped! [E,,_B,,C,]8!ped-up! |!ped! [E,,_B,,C,]8!ped-up! | %15
!ped! [D,,_B,,F,]8!ped-up! |!ped! [D,,_B,,F,]8!ped-up! |!ped! [^C,,A,,E,]8!ped-up! | %18
!ped! [^C,,A,,E,]8!ped-up! |!ped! [=C,_E,^F,A,]4!f! A,4 | z4!ped-up! A,,4- | %21
!ped! [A,,_E,=F,]8!ped-up! |!ped! [A,,D,^F,]8!ped-up!!ped! | !>![G,,C,=F,_B,_D]8- | %24
 [G,,C,F,B,D]8!ped-up!!ped! | [G,,D,G,=D]8!ped-up!!ped! | [F,CF]8!ped!!ped-up! | [_E,_A,C_G]8- | %28
 [E,A,CG]8!ped!!ped-up! | [=A,C_E^F]8!ped-up! |!ped! [E,,_B,,C,]8!ped-up! | %31
!ped! [E,,_B,,C,]8!ped-up! |!ped! [D,,_B,,F,]8!ped-up! |!ped! [^C,,A,,E,]8!ped-up! | %34
!ped! [D,,A,,D,]8!ped-up! |!ped! [F,,C,]8!ped-up! |!ped! [G,,C,_E,]8!ped-up! | %37
!ped! [G,,F,]8!ped-up! |!ped! [C,,_B,,=E,]8!ped-up! |!ped! [C,,A,,E,]8!ped-up! | %40
!ped! [C,,_A,,C,D,F,]8!ped-up! |!ped! [C,,G,,C,]8- | !fermata![C,,G,,C,]8!ped-up! |] %43
V:4
 E,,4- E,,4 | E,,4- E,,4 | x8 | x8 | x8 | x8 | x8 | x8 | x8 | x8 | x8 | x8 | x8 | x8 | x8 | x8 | %16
 x8 | x8 | x8 | C,,2 z2 A,,4 | x2 x7/4!p! (3:1:3^F,,/4G,,/4^G,,/4 x4 | x8 | x31/4 x/4 | z6 F, z | %24
 z2 _B, z z2 F z | z2 G, z D z G z | [F,,C,]2 x2 x2 x3/2 x/ | [_E,,_A,,]2 x2 x4 | %28
 z2 _A, z z2 _E z | [=D,,,=D,,]2 x2 x4 | x8 | x8 | x8 | x8 | x8 | x8 | x8 | x8 | x8 | x8 | x8 | %41
 x8 | x8 |] %43
V:5
 x8 | x8 | x8 | x8 | x8 | x8 | [^F,^A,^C]8 | [^F,^A,^C]8 | [^F,^A,^C]8- | [F,A,C]8 | [B,^D^FB]8- | %11
 [B,DFB]8- | [B,DFB]8 | x8 | x8 | x8 | x8 | x8 | x8 | x8 |[K:bass] x8 |[K:treble] x8 | %22
 x4!<(! x4!<)! | z6 F z | z2 _B z z2 f z | z2 G z d z g z | x8 | x8 | z2 _A z z2 _e z | x8 | x8 | %31
 x8 | x8 | x4"_dim." x4 | x8 | x8 | x8 | x8 | x8 | x8 | x8 | [E,G,CE]8- | !fermata![E,G,CE]8 |] %43
V:6
 x8 | x8 | x8 | x8 | x8 | x8 | x8 | x8 | x8 | x8 | x8 | x8 | x8 | x8 | x8 | x8 | x8 | x8 | x8 | %19
 x2 x7/4!<(! (3:1:3^F,/4G,/4^G,/4 x4!<)! | x8 | x8 | x8 | x4 x7/4 (4:1:4_B,,/4C,/4_D,/4_E,/4 x2 | %24
 x7/4 (4:1:4F,/4G,/4_A,/4=A,/4 x2 x7/4 (4:1:4_B,/4C/4_D/4_E/4 x3/2 x/ | %25
 x7/4 (3:1:3D,/4E,/4^F,/4 x7/4 (4:1:4G,/4A,/4B,/4C/4 x3/2 (7:2:7G,/4A,/4B,/4C/4D/4_E/4F/4 x3/2 x/ | %26
 x8 | x8 | x7/4 (3:1:3_E,/4F,/4_G,/4 x2 x7/4 (4:1:4_A,/4_B,/4C/4_D/4 x3/2 x/ | x8 | x8 | x8 | x8 | %33
 x8 | x8 | x8 | x8 | x8 | x8 | x8 | x8 | x8 | x8 |] %43
V:7
 x8 | x8 | x8 | x8 | x8 | x8 | x8 | x8 | x8 | x8 | x8 | x8 | x8 | x8 | x8 | x8 | x8 | x8 | x8 | %19
 x2 x7/4 (3:1:3^F,,/4G,,/4^G,,/4 x4 | x8 | x8 | x8 | x8 | x8 | x8 | x8 | x8 | x8 | x8 | x8 | x8 | %32
 x8 | x8 | x8 | x8 | x8 | x8 | x8 | x8 | x8 | x8 | x8 |] %43
V:8
 x8 | x8 | x8 | x8 | x8 | x8 | x8 | x8 | x8 | x8 | x8 | x2!8va(! x2!8va)! x2!8va(! x2!8va)! | %12
 x4!8va(! x4!8va)! | x8 | x8 | x8 | x8 | x8 | x8 | x8 |[K:bass] x8 |[K:treble] x8 | x8 | %23
 x4 x7/4 (4:1:4_B,/4C/4_D/4_E/4 x2 | x7/4 (4:1:4F/4G/4_A/4=A/4 x2 x7/4 (4:1:4_B/4c/4_d/4_e/4 x2 | %25
 x7/4 (3:1:3D/4E/4^F/4 x7/4 (4:1:4G/4A/4B/4c/4 x3/2 (7:2:7G/4A/4B/4c/4d/4_e/4f/4 x2 | x8 | x8 | %28
 x7/4 (3:1:3_E/4F/4_G/4 x2 x7/4 (4:1:4_A/4_B/4c/4_d/4 x2 | x8 | x8 | x8 | x8 | x8 | x8 | x8 | x8 | %37
 x8 | x8 | x8 | x8 | x8 | x8 |] %43

